source/img/phone-contact.svg

<svg width="20" height="20" viewBox="0 0 20 20" fill="none" xmlns="http://www.w3.org/2000/svg">
<path d="M19.4859 14.7513L16.9995 12.265C16.314 11.5796 15.1985 11.5796 14.5131 12.265L13.3829 13.3951C12.8636 13.9144 12.0186 13.9143 11.4994 13.3953L6.60078 8.4927C6.08024 7.97219 6.08017 7.12973 6.60078 6.60915C6.78281 6.42711 7.30553 5.90442 7.73094 5.47903C8.41343 4.79661 8.42297 3.68469 7.73028 2.99211L5.24454 0.514297C4.55904 -0.171133 3.44364 -0.171133 2.75998 0.512501C2.2484 1.01961 2.08339 1.1832 1.854 1.41059C-0.617981 3.88243 -0.617981 7.90442 1.85389 10.3762L9.61563 18.1417C12.0934 20.6194 16.1037 20.6195 18.5817 18.1417L19.4859 17.2376C20.1714 16.5521 20.1714 15.4368 19.4859 14.7513ZM3.58697 1.34305C3.81546 1.11457 4.18719 1.11453 4.41642 1.34367L6.90216 3.82149C7.13119 4.05051 7.13119 4.42118 6.90216 4.65024L6.48772 5.06461L3.17469 1.75172L3.58697 1.34305ZM10.4446 17.313L2.68279 9.54747C0.770283 7.63504 0.665161 4.63211 2.35949 2.5941L5.66292 5.89739C4.79491 6.88133 4.83109 8.38067 5.77179 9.32134L10.6703 14.2237C10.6703 14.2238 10.6704 14.2238 10.6704 14.2239C11.6101 15.1636 13.1095 15.2021 14.0947 14.3329L17.3982 17.6363C15.3666 19.3276 12.3702 19.2386 10.4446 17.313ZM18.6571 16.4088L18.2427 16.8232L14.9275 13.5081L15.3419 13.0938C15.5704 12.8653 15.9422 12.8652 16.1707 13.0938L18.6571 15.5801C18.8856 15.8086 18.8856 16.1804 18.6571 16.4088Z" fill="url(#paint0_linear)"/>
<defs>
<linearGradient id="paint0_linear" x1="20" y1="20" x2="2.98023e-07" y2="20" gradientUnits="userSpaceOnUse">
<stop stop-color="#FF6E2F"/>
<stop offset="1" stop-color="#F84343"/>
</linearGradient>
</defs>
</svg>

<svg width="20" height="20" fill="none" xmlns="http://www.w3.org/2000/svg"><path d="M19.486 14.751L17 12.265a1.76 1.76 0 00-2.487 0l-1.13 1.13c-.52.52-1.364.52-1.884 0L6.601 8.493a1.331 1.331 0 010-1.884l1.13-1.13a1.757 1.757 0 000-2.487L5.244.514A1.76 1.76 0 002.76.513l-.906.898a6.347 6.347 0 000 8.965l7.762 7.766a6.337 6.337 0 008.966 0l.904-.904a1.76 1.76 0 000-2.487zM3.587 1.343a.587.587 0 01.83 0l2.485 2.478c.23.23.23.6 0 .83l-.414.414-3.313-3.313.412-.409zm6.858 15.97L2.683 9.547a5.152 5.152 0 01-.324-6.953l3.304 3.303a2.501 2.501 0 00.109 3.424l4.898 4.903c.94.94 2.44.978 3.425.109l3.303 3.303a5.143 5.143 0 01-6.953-.323zm8.212-.904l-.414.414-3.315-3.315.414-.414a.587.587 0 01.829 0l2.486 2.486c.229.229.229.6 0 .829z" fill="url(#paint0_linear)"/><defs><linearGradient id="paint0_linear" x1="20" y1="20" x2="0" y2="20" gradientUnits="userSpaceOnUse"><stop stop-color="#FF6E2F"/><stop offset="1" stop-color="#F84343"/></linearGradient></defs></svg>
